tools/test-grade.cube
TITLE "XCam Test Grade"
LUT_3D_SIZE 9
DOMAIN_MIN 0.0 0.0 0.0
DOMAIN_MAX 1.0 1.0 1.0
0.000000 0.000000 0.200000
0.000000 0.000000 0.197077
0.065551 0.000000 0.189370
0.235241 0.000000 0.178474
0.429764 0.000000 0.165984
0.624287 0.000000 0.153494
0.793977 0.000000 0.142598
0.914001 0.000000 0.134891
0.959528 0.000000 0.131968
0.000000 0.042969 0.190166
0.000000 0.042969 0.187243
0.074156 0.042969 0.179536
0.243846 0.042969 0.168640
0.438369 0.042969 0.156150
0.632891 0.042969 0.143660
0.802582 0.042969 0.132764
0.922606 0.042969 0.125057
0.968133 0.042969 0.122134
0.000000 0.156250 0.164240
0.000000 0.156250 0.161317
0.096841 0.156250 0.153610
0.266531 0.156250 0.142714
0.461054 0.156250 0.130224
0.655577 0.156250 0.117734
0.825267 0.156250 0.106838
0.945291 0.156250 0.099131
0.990818 0.156250 0.096208
0.000000 0.316406 0.127586
0.008889 0.316406 0.124663
0.128914 0.316406 0.116956
0.298604 0.316406 0.106060
0.493126 0.316406 0.093570
0.687649 0.316406 0.081080
0.857339 0.316406 0.070184
0.977364 0.316406 0.062477
1.000000 0.316406 0.059554
0.000128 0.500000 0.085568
0.045655 0.500000 0.082645
0.165679 0.500000 0.074938
0.335369 0.500000 0.064042
0.529892 0.500000 0.051552
0.724415 0.500000 0.039062
0.894105 0.500000 0.028166
1.000000 0.500000 0.020459
1.000000 0.500000 0.017536
0.036894 0.683594 0.043550
0.082420 0.683594 0.040627
0.202445 0.683594 0.032920
0.372135 0.683594 0.022024
0.566658 0.683594 0.009534
0.761180 0.683594 0.000000
0.930871 0.683594 0.000000
1.000000 0.683594 0.000000
1.000000 0.683594 0.000000
0.068966 0.843750 0.006896
0.114493 0.843750 0.003973
0.234517 0.843750 0.000000
0.404207 0.843750 0.000000
0.598730 0.843750 0.000000
0.793253 0.843750 0.000000
0.962943 0.843750 0.000000
1.000000 0.843750 0.000000
1.000000 0.843750 0.000000
0.091651 0.957031 0.000000
0.137178 0.957031 0.000000
0.257203 0.957031 0.000000
0.426893 0.957031 0.000000
0.621415 0.957031 0.000000
0.815938 0.957031 0.000000
0.985628 0.957031 0.000000
1.000000 0.957031 0.000000
1.000000 0.957031 0.000000
0.100256 1.000000 0.000000
0.145783 1.000000 0.000000
0.265807 1.000000 0.000000
0.435497 1.000000 0.000000
0.630020 1.000000 0.000000
0.824543 1.000000 0.000000
0.994233 1.000000 0.000000
1.000000 1.000000 0.000000
1.000000 1.000000 0.000000
0.000000 0.000000 0.241976
0.000000 0.000000 0.239053
0.066420 0.000000 0.231346
0.236110 0.000000 0.220450
0.430633 0.000000 0.207960
0.625155 0.000000 0.195470
0.794845 0.000000 0.184574
0.914870 0.000000 0.176867
0.960397 0.000000 0.173944
0.000000 0.042969 0.232142
0.000000 0.042969 0.229219
0.075025 0.042969 0.221512
0.244715 0.042969 0.210616
0.439237 0.042969 0.198126
0.633760 0.042969 0.185636
0.803450 0.042969 0.174740
0.923475 0.042969 0.167033
0.969001 0.042969 0.164110
0.000000 0.156250 0.206216
0.000000 0.156250 0.203293
0.097710 0.156250 0.195586
0.267400 0.156250 0.184690
0.461923 0.156250 0.172200
0.656445 0.156250 0.159710
0.826135 0.156250 0.148814
0.946160 0.156250 0.141107
0.991687 0.156250 0.138184
0.000000 0.316406 0.169562
0.009757 0.316406 0.166639
0.129782 0.316406 0.158932
0.299472 0.316406 0.148036
0.493995 0.316406 0.135546
0.688518 0.316406 0.123056
0.858208 0.316406 0.112160
0.978232 0.316406 0.104453
1.000000 0.316406 0.101530
0.000997 0.500000 0.127544
0.046523 0.500000 0.124621
0.166548 0.500000 0.116914
0.336238 0.500000 0.106018
0.530761 0.500000 0.093528
0.725283 0.500000 0.081038
0.894973 0.500000 0.070142
1.000000 0.500000 0.062435
1.000000 0.500000 0.059512
0.037762 0.683594 0.085526
0.083289 0.683594 0.082603
0.203314 0.683594 0.074896
0.373004 0.683594 0.064000
0.567526 0.683594 0.051510
0.762049 0.683594 0.039020
0.931739 0.683594 0.028124
1.000000 0.683594 0.020417
1.000000 0.683594 0.017494
0.069835 0.843750 0.048872
0.115361 0.843750 0.045949
0.235386 0.843750 0.038242
0.405076 0.843750 0.027346
0.599599 0.843750 0.014856
0.794121 0.843750 0.002366
0.963811 0.843750 0.000000
1.000000 0.843750 0.000000
1.000000 0.843750 0.000000
0.092520 0.957031 0.022946
0.138046 0.957031 0.020023
0.258071 0.957031 0.012316
0.427761 0.957031 0.001420
0.622284 0.957031 0.000000
0.816807 0.957031 0.000000
0.986497 0.957031 0.000000
1.000000 0.957031 0.000000
1.000000 0.957031 0.000000
0.101125 1.000000 0.013112
0.146651 1.000000 0.010189
0.266676 1.000000 0.002482
0.436366 1.000000 0.000000
0.630889 1.000000 0.000000
0.825411 1.000000 0.000000
0.995101 1.000000 0.000000
1.000000 1.000000 0.000000
1.000000 1.000000 0.000000
0.000000 0.000000 0.352640
0.000000 0.000000 0.349717
0.068710 0.000000 0.342010
0.238400 0.000000 0.331114
0.432923 0.000000 0.318624
0.627445 0.000000 0.306134
0.797135 0.000000 0.295238
0.917160 0.000000 0.287531
0.962687 0.000000 0.284608
0.000000 0.042969 0.342806
0.000000 0.042969 0.339883
0.077315 0.042969 0.332176
0.247005 0.042969 0.321280
0.441527 0.042969 0.308790
0.636050 0.042969 0.296300
0.805740 0.042969 0.285404
0.925765 0.042969 0.277697
0.971292 0.042969 0.274774
0.000000 0.156250 0.316880
0.000000 0.156250 0.313957
0.100000 0.156250 0.306250
0.269690 0.156250 0.295354
0.464213 0.156250 0.282864
0.658735 0.156250 0.270374
0.828426 0.156250 0.259478
0.948450 0.156250 0.251771
0.993977 0.156250 0.248848
0.000000 0.316406 0.280226
0.012048 0.316406 0.277303
0.132072 0.316406 0.269596
0.301762 0.316406 0.258700
0.496285 0.316406 0.246210
0.690808 0.316406 0.233720
0.860498 0.316406 0.222824
0.980522 0.316406 0.215117
1.000000 0.316406 0.212194
0.003287 0.500000 0.238208
0.048813 0.500000 0.235285
0.168838 0.500000 0.227578
0.338528 0.500000 0.216682
0.533051 0.500000 0.204192
0.727573 0.500000 0.191702
0.897263 0.500000 0.180806
1.000000 0.500000 0.173099
1.000000 0.500000 0.170176
0.040052 0.683594 0.196190
0.085579 0.683594 0.193267
0.205604 0.683594 0.185560
0.375294 0.683594 0.174664
0.569816 0.683594 0.162174
0.764339 0.683594 0.149684
0.934029 0.683594 0.138788
1.000000 0.683594 0.131081
1.000000 0.683594 0.128158
0.072125 0.843750 0.159536
0.117651 0.843750 0.156613
0.237676 0.843750 0.148906
0.407366 0.843750 0.138010
0.601889 0.843750 0.125520
0.796411 0.843750 0.113030
0.966101 0.843750 0.102134
1.000000 0.843750 0.094427
1.000000 0.843750 0.091504
0.094810 0.957031 0.133610
0.140337 0.957031 0.130687
0.260361 0.957031 0.122980
0.430051 0.957031 0.112084
0.624574 0.957031 0.099594
0.819097 0.957031 0.087104
0.988787 0.957031 0.076208
1.000000 0.957031 0.068501
1.000000 0.957031 0.065578
0.103415 1.000000 0.123776
0.148941 1.000000 0.120853
0.268966 1.000000 0.113146
0.438656 1.000000 0.102250
0.633179 1.000000 0.089760
0.827701 1.000000 0.077270
0.997391 1.000000 0.066374
1.000000 1.000000 0.058667
1.000000 1.000000 0.055744
0.000000 0.000000 0.509096
0.000000 0.000000 0.506173
0.071948 0.000000 0.498466
0.241638 0.000000 0.487570
0.436160 0.000000 0.475080
0.630683 0.000000 0.462590
0.800373 0.000000 0.451694
0.920398 0.000000 0.443987
0.965924 0.000000 0.441064
0.000000 0.042969 0.499262
0.000000 0.042969 0.496339
0.080552 0.042969 0.488632
0.250242 0.042969 0.477736
0.444765 0.042969 0.465246
0.639288 0.042969 0.452756
0.808978 0.042969 0.441860
0.929003 0.042969 0.434153
0.974529 0.042969 0.431230
0.000000 0.156250 0.473336
0.000000 0.156250 0.470413
0.103238 0.156250 0.462706
0.272928 0.156250 0.451810
0.467450 0.156250 0.439320
0.661973 0.156250 0.426830
0.831663 0.156250 0.415934
0.951688 0.156250 0.408227
0.997214 0.156250 0.405304
0.000000 0.316406 0.436682
0.015285 0.316406 0.433759
0.135310 0.316406 0.426052
0.305000 0.316406 0.415156
0.499523 0.316406 0.402666
0.694045 0.316406 0.390176
0.863735 0.316406 0.379280
0.983760 0.316406 0.371573
1.000000 0.316406 0.368650
0.006524 0.500000 0.394664
0.052051 0.500000 0.391741
0.172076 0.500000 0.384034
0.341766 0.500000 0.373138
0.536288 0.500000 0.360648
0.730811 0.500000 0.348158
0.900501 0.500000 0.337262
1.000000 0.500000 0.329555
1.000000 0.500000 0.326632
0.043290 0.683594 0.352646
0.088817 0.683594 0.349723
0.208841 0.683594 0.342016
0.378532 0.683594 0.331120
0.573054 0.683594 0.318630
0.767577 0.683594 0.306140
0.937267 0.683594 0.295244
1.000000 0.683594 0.287537
1.000000 0.683594 0.284614
0.075362 0.843750 0.315992
0.120889 0.843750 0.313069
0.240914 0.843750 0.305362
0.410604 0.843750 0.294466
0.605126 0.843750 0.281976
0.799649 0.843750 0.269486
0.969339 0.843750 0.258590
1.000000 0.843750 0.250883
1.000000 0.843750 0.247960
0.098048 0.957031 0.290066
0.143574 0.957031 0.287143
0.263599 0.957031 0.279436
0.433289 0.957031 0.268540
0.627812 0.957031 0.256050
0.822334 0.957031 0.243560
0.992024 0.957031 0.232664
1.000000 0.957031 0.224957
1.000000 0.957031 0.222034
0.106652 1.000000 0.280232
0.152179 1.000000 0.277309
0.272204 1.000000 0.269602
0.441894 1.000000 0.258706
0.636416 1.000000 0.246216
0.830939 1.000000 0.233726
1.000000 1.000000 0.222830
1.000000 1.000000 0.215123
1.000000 1.000000 0.212200
0.000000 0.000000 0.688448
0.000000 0.000000 0.685525
0.075659 0.000000 0.677818
0.245349 0.000000 0.666922
0.439872 0.000000 0.654432
0.634395 0.000000 0.641942
0.804085 0.000000 0.631046
0.924109 0.000000 0.623339
0.969636 0.000000 0.620416
0.000000 0.042969 0.678614
0.000000 0.042969 0.675691
0.084264 0.042969 0.667984
0.253954 0.042969 0.657088
0.448477 0.042969 0.644598
0.642999 0.042969 0.632108
0.812689 0.042969 0.621212
0.932714 0.042969 0.613505
0.978241 0.042969 0.610582
0.000000 0.156250 0.652688
0.000000 0.156250 0.649765
0.106949 0.156250 0.642058
0.276639 0.156250 0.631162
0.471162 0.156250 0.618672
0.665685 0.156250 0.606182
0.835375 0.156250 0.595286
0.955399 0.156250 0.587579
1.000000 0.156250 0.584656
0.000000 0.316406 0.616034
0.018997 0.316406 0.613111
0.139022 0.316406 0.605404
0.308712 0.316406 0.594508
0.503234 0.316406 0.582018
0.697757 0.316406 0.569528
0.867447 0.316406 0.558632
0.987472 0.316406 0.550925
1.000000 0.316406 0.548002
0.010236 0.500000 0.574016
0.055763 0.500000 0.571093
0.175787 0.500000 0.563386
0.345477 0.500000 0.552490
0.540000 0.500000 0.540000
0.734523 0.500000 0.527510
0.904213 0.500000 0.516614
1.000000 0.500000 0.508907
1.000000 0.500000 0.505984
0.047002 0.683594 0.531998
0.092528 0.683594 0.529075
0.212553 0.683594 0.521368
0.382243 0.683594 0.510472
0.576766 0.683594 0.497982
0.771288 0.683594 0.485492
0.940979 0.683594 0.474596
1.000000 0.683594 0.466889
1.000000 0.683594 0.463966
0.079074 0.843750 0.495344
0.124601 0.843750 0.492421
0.244625 0.843750 0.484714
0.414315 0.843750 0.473818
0.608838 0.843750 0.461328
0.803361 0.843750 0.448838
0.973051 0.843750 0.437942
1.000000 0.843750 0.430235
1.000000 0.843750 0.427312
0.101759 0.957031 0.469418
0.147286 0.957031 0.466495
0.267311 0.957031 0.458788
0.437001 0.957031 0.447892
0.631523 0.957031 0.435402
0.826046 0.957031 0.422912
0.995736 0.957031 0.412016
1.000000 0.957031 0.404309
1.000000 0.957031 0.401386
0.110364 1.000000 0.459584
0.155891 1.000000 0.456661
0.275915 1.000000 0.448954
0.445605 1.000000 0.438058
0.640128 1.000000 0.425568
0.834651 1.000000 0.413078
1.000000 1.000000 0.402182
1.000000 1.000000 0.394475
1.000000 1.000000 0.391552
0.000000 0.000000 0.867800
0.000000 0.000000 0.864877
0.079371 0.000000 0.857170
0.249061 0.000000 0.846274
0.443584 0.000000 0.833784
0.638106 0.000000 0.821294
0.807796 0.000000 0.810398
0.927821 0.000000 0.802691
0.973348 0.000000 0.799768
0.000000 0.042969 0.857966
0.000000 0.042969 0.855043
0.087976 0.042969 0.847336
0.257666 0.042969 0.836440
0.452188 0.042969 0.823950
0.646711 0.042969 0.811460
0.816401 0.042969 0.800564
0.936426 0.042969 0.792857
0.981952 0.042969 0.789934
0.000000 0.156250 0.832040
0.000000 0.156250 0.829117
0.110661 0.156250 0.821410
0.280351 0.156250 0.810514
0.474874 0.156250 0.798024
0.669396 0.156250 0.785534
0.839086 0.156250 0.774638
0.959111 0.156250 0.766931
1.000000 0.156250 0.764008
0.000000 0.316406 0.795386
0.022708 0.316406 0.792463
0.142733 0.316406 0.784756
0.312423 0.316406 0.773860
0.506946 0.316406 0.761370
0.701469 0.316406 0.748880
0.871159 0.316406 0.737984
0.991183 0.316406 0.730277
1.000000 0.316406 0.727354
0.013948 0.500000 0.753368
0.059474 0.500000 0.750445
0.179499 0.500000 0.742738
0.349189 0.500000 0.731842
0.543712 0.500000 0.719352
0.738234 0.500000 0.706862
0.907924 0.500000 0.695966
1.000000 0.500000 0.688259
1.000000 0.500000 0.685336
0.050713 0.683594 0.711350
0.096240 0.683594 0.708427
0.216265 0.683594 0.700720
0.385955 0.683594 0.689824
0.580477 0.683594 0.677334
0.775000 0.683594 0.664844
0.944690 0.683594 0.653948
1.000000 0.683594 0.646241
1.000000 0.683594 0.643318
0.082786 0.843750 0.674696
0.128312 0.843750 0.671773
0.248337 0.843750 0.664066
0.418027 0.843750 0.653170
0.612550 0.843750 0.640680
0.807072 0.843750 0.628190
0.976762 0.843750 0.617294
1.000000 0.843750 0.609587
1.000000 0.843750 0.606664
0.105471 0.957031 0.648770
0.150997 0.957031 0.645847
0.271022 0.957031 0.638140
0.440712 0.957031 0.627244
0.635235 0.957031 0.614754
0.829757 0.957031 0.602264
0.999448 0.957031 0.591368
1.000000 0.957031 0.583661
1.000000 0.957031 0.580738
0.114076 1.000000 0.638936
0.159602 1.000000 0.636013
0.279627 1.000000 0.628306
0.449317 1.000000 0.617410
0.643840 1.000000 0.604920
0.838362 1.000000 0.592430
1.000000 1.000000 0.581534
1.000000 1.000000 0.573827
1.000000 1.000000 0.570904
0.000000 0.000000 1.000000
0.000000 0.000000 1.000000
0.082609 0.000000 1.000000
0.252299 0.000000 1.000000
0.446821 0.000000 0.990240
0.641344 0.000000 0.977750
0.811034 0.000000 0.966854
0.931059 0.000000 0.959147
0.976585 0.000000 0.956224
0.000000 0.042969 1.000000
0.000000 0.042969 1.000000
0.091213 0.042969 1.000000
0.260903 0.042969 0.992896
0.455426 0.042969 0.980406
0.649949 0.042969 0.967916
0.819639 0.042969 0.957020
0.939663 0.042969 0.949313
0.985190 0.042969 0.946390
0.000000 0.156250 0.988496
0.000000 0.156250 0.985573
0.113898 0.156250 0.977866
0.283589 0.156250 0.966970
0.478111 0.156250 0.954480
0.672634 0.156250 0.941990
0.842324 0.156250 0.931094
0.962349 0.156250 0.923387
1.000000 0.156250 0.920464
0.000000 0.316406 0.951842
0.025946 0.316406 0.948919
0.145971 0.316406 0.941212
0.315661 0.316406 0.930316
0.510184 0.316406 0.917826
0.704706 0.316406 0.905336
0.874396 0.316406 0.894440
0.994421 0.316406 0.886733
1.000000 0.316406 0.883810
0.017185 0.500000 0.909824
0.062712 0.500000 0.906901
0.182736 0.500000 0.899194
0.352427 0.500000 0.888298
0.546949 0.500000 0.875808
0.741472 0.500000 0.863318
0.911162 0.500000 0.852422
1.000000 0.500000 0.844715
1.000000 0.500000 0.841792
0.053951 0.683594 0.867806
0.099478 0.683594 0.864883
0.219502 0.683594 0.857176
0.389192 0.683594 0.846280
0.583715 0.683594 0.833790
0.778238 0.683594 0.821300
0.947928 0.683594 0.810404
1.000000 0.683594 0.802697
1.000000 0.683594 0.799774
0.086023 0.843750 0.831152
0.131550 0.843750 0.828229
0.251574 0.843750 0.820522
0.421265 0.843750 0.809626
0.615787 0.843750 0.797136
0.810310 0.843750 0.784646
0.980000 0.843750 0.773750
1.000000 0.843750 0.766043
1.000000 0.843750 0.763120
0.108708 0.957031 0.805226
0.154235 0.957031 0.802303
0.274260 0.957031 0.794596
0.443950 0.957031 0.783700
0.638472 0.957031 0.771210
0.832995 0.957031 0.758720
1.000000 0.957031 0.747824
1.000000 0.957031 0.740117
1.000000 0.957031 0.737194
0.117313 1.000000 0.795392
0.162840 1.000000 0.792469
0.282864 1.000000 0.784762
0.452555 1.000000 0.773866
0.647077 1.000000 0.761376
0.841600 1.000000 0.748886
1.000000 1.000000 0.737990
1.000000 1.000000 0.730283
1.000000 1.000000 0.727360
0.000000 0.000000 1.000000
0.000000 0.000000 1.000000
0.084899 0.000000 1.000000
0.254589 0.000000 1.000000
0.449111 0.000000 1.000000
0.643634 0.000000 1.000000
0.813324 0.000000 1.000000
0.933349 0.000000 1.000000
0.978875 0.000000 1.000000
0.000000 0.042969 1.000000
0.000000 0.042969 1.000000
0.093503 0.042969 1.000000
0.263193 0.042969 1.000000
0.457716 0.042969 1.000000
0.652239 0.042969 1.000000
0.821929 0.042969 1.000000
0.941953 0.042969 1.000000
0.987480 0.042969 1.000000
0.000000 0.156250 1.000000
0.000000 0.156250 1.000000
0.116189 0.156250 1.000000
0.285879 0.156250 1.000000
0.480401 0.156250 1.000000
0.674924 0.156250 1.000000
0.844614 0.156250 1.000000
0.964639 0.156250 1.000000
1.000000 0.156250 1.000000
0.000000 0.316406 1.000000
0.028236 0.316406 1.000000
0.148261 0.316406 1.000000
0.317951 0.316406 1.000000
0.512474 0.316406 1.000000
0.706996 0.316406 1.000000
0.876686 0.316406 1.000000
0.996711 0.316406 0.997397
1.000000 0.316406 0.994474
0.019475 0.500000 1.000000
0.065002 0.500000 1.000000
0.185027 0.500000 1.000000
0.354717 0.500000 0.998962
0.549239 0.500000 0.986472
0.743762 0.500000 0.973982
0.913452 0.500000 0.963086
1.000000 0.500000 0.955379
1.000000 0.500000 0.952456
0.056241 0.683594 0.978470
0.101768 0.683594 0.975547
0.221792 0.683594 0.967840
0.391482 0.683594 0.956944
0.586005 0.683594 0.944454
0.780528 0.683594 0.931964
0.950218 0.683594 0.921068
1.000000 0.683594 0.913361
1.000000 0.683594 0.910438
0.088313 0.843750 0.941816
0.133840 0.843750 0.938893
0.253865 0.843750 0.931186
0.423555 0.843750 0.920290
0.618077 0.843750 0.907800
0.812600 0.843750 0.895310
0.982290 0.843750 0.884414
1.000000 0.843750 0.876707
1.000000 0.843750 0.873784
0.110999 0.957031 0.915890
0.156525 0.957031 0.912967
0.276550 0.957031 0.905260
0.446240 0.957031 0.894364
0.640763 0.957031 0.881874
0.835285 0.957031 0.869384
1.000000 0.957031 0.858488
1.000000 0.957031 0.850781
1.000000 0.957031 0.847858
0.119603 1.000000 0.906056
0.165130 1.000000 0.903133
0.285155 1.000000 0.895426
0.454845 1.000000 0.884530
0.649367 1.000000 0.872040
0.843890 1.000000 0.859550
1.000000 1.000000 0.848654
1.000000 1.000000 0.840947
1.000000 1.000000 0.838024
0.000000 0.000000 1.000000
0.000000 0.000000 1.000000
0.085767 0.000000 1.000000
0.255457 0.000000 1.000000
0.449980 0.000000 1.000000
0.644503 0.000000 1.000000
0.814193 0.000000 1.000000
0.934217 0.000000 1.000000
0.979744 0.000000 1.000000
0.000000 0.042969 1.000000
0.000000 0.042969 1.000000
0.094372 0.042969 1.000000
0.264062 0.042969 1.000000
0.458585 0.042969 1.000000
0.653107 0.042969 1.000000
0.822797 0.042969 1.000000
0.942822 0.042969 1.000000
0.988349 0.042969 1.000000
0.000000 0.156250 1.000000
0.000000 0.156250 1.000000
0.117057 0.156250 1.000000
0.286747 0.156250 1.000000
0.481270 0.156250 1.000000
0.675793 0.156250 1.000000
0.845483 0.156250 1.000000
0.965507 0.156250 1.000000
1.000000 0.156250 1.000000
0.000000 0.316406 1.000000
0.029105 0.316406 1.000000
0.149129 0.316406 1.000000
0.318820 0.316406 1.000000
0.513342 0.316406 1.000000
0.707865 0.316406 1.000000
0.877555 0.316406 1.000000
0.997580 0.316406 1.000000
1.000000 0.316406 1.000000
0.020344 0.500000 1.000000
0.065871 0.500000 1.000000
0.185895 0.500000 1.000000
0.355585 0.500000 1.000000
0.550108 0.500000 1.000000
0.744631 0.500000 1.000000
0.914321 0.500000 1.000000
1.000000 0.500000 0.997355
1.000000 0.500000 0.994432
0.057110 0.683594 1.000000
0.102636 0.683594 1.000000
0.222661 0.683594 1.000000
0.392351 0.683594 0.998920
0.586874 0.683594 0.986430
0.781396 0.683594 0.973940
0.951087 0.683594 0.963044
1.000000 0.683594 0.955337
1.000000 0.683594 0.952414
0.089182 0.843750 0.983792
0.134709 0.843750 0.980869
0.254733 0.843750 0.973162
0.424423 0.843750 0.962266
0.618946 0.843750 0.949776
0.813469 0.843750 0.937286
0.983159 0.843750 0.926390
1.000000 0.843750 0.918683
1.000000 0.843750 0.915760
0.111867 0.957031 0.957866
0.157394 0.957031 0.954943
0.277419 0.957031 0.947236
0.447109 0.957031 0.936340
0.641631 0.957031 0.923850
0.836154 0.957031 0.911360
1.000000 0.957031 0.900464
1.000000 0.957031 0.892757
1.000000 0.957031 0.889834
0.120472 1.000000 0.948032
0.165999 1.000000 0.945109
0.286023 1.000000 0.937402
0.455713 1.000000 0.926506
0.650236 1.000000 0.914016
0.844759 1.000000 0.901526
1.000000 1.000000 0.890630
1.000000 1.000000 0.882923
1.000000 1.000000 0.880000
