tools/test-grade.cube
TITLE "XCam Test Grade"
LUT_3D_SIZE 5
DOMAIN_MIN 0.0 0.0 0.0
DOMAIN_MAX 1.0 1.0 1.0
0.000000 0.000000 0.200000
0.065551 0.000000 0.189370
0.429764 0.000000 0.165984
0.793977 0.000000 0.142598
0.959528 0.000000 0.131968
0.000000 0.156250 0.164240
0.096841 0.156250 0.153610
0.461054 0.156250 0.130224
0.825267 0.156250 0.106838
0.990818 0.156250 0.096208
0.000128 0.500000 0.085568
0.165679 0.500000 0.074938
0.529892 0.500000 0.051552
0.894105 0.500000 0.028166
1.000000 0.500000 0.017536
0.068966 0.843750 0.006896
0.234517 0.843750 0.000000
0.598730 0.843750 0.000000
0.962943 0.843750 0.000000
1.000000 0.843750 0.000000
0.100256 1.000000 0.000000
0.265807 1.000000 0.000000
0.630020 1.000000 0.000000
0.994233 1.000000 0.000000
1.000000 1.000000 0.000000
0.000000 0.000000 0.352640
0.068710 0.000000 0.342010
0.432923 0.000000 0.318624
0.797135 0.000000 0.295238
0.962687 0.000000 0.284608
0.000000 0.156250 0.316880
0.100000 0.156250 0.306250
0.464213 0.156250 0.282864
0.828426 0.156250 0.259478
0.993977 0.156250 0.248848
0.003287 0.500000 0.238208
0.168838 0.500000 0.227578
0.533051 0.500000 0.204192
0.897263 0.500000 0.180806
1.000000 0.500000 0.170176
0.072125 0.843750 0.159536
0.237676 0.843750 0.148906
0.601889 0.843750 0.125520
0.966101 0.843750 0.102134
1.000000 0.843750 0.091504
0.103415 1.000000 0.123776
0.268966 1.000000 0.113146
0.633179 1.000000 0.089760
0.997391 1.000000 0.066374
1.000000 1.000000 0.055744
0.000000 0.000000 0.688448
0.075659 0.000000 0.677818
0.439872 0.000000 0.654432
0.804085 0.000000 0.631046
0.969636 0.000000 0.620416
0.000000 0.156250 0.652688
0.106949 0.156250 0.642058
0.471162 0.156250 0.618672
0.835375 0.156250 0.595286
1.000000 0.156250 0.584656
0.010236 0.500000 0.574016
0.175787 0.500000 0.563386
0.540000 0.500000 0.540000
0.904213 0.500000 0.516614
1.000000 0.500000 0.505984
0.079074 0.843750 0.495344
0.244625 0.843750 0.484714
0.608838 0.843750 0.461328
0.973051 0.843750 0.437942
1.000000 0.843750 0.427312
0.110364 1.000000 0.459584
0.275915 1.000000 0.448954
0.640128 1.000000 0.425568
1.000000 1.000000 0.402182
1.000000 1.000000 0.391552
0.000000 0.000000 1.000000
0.082609 0.000000 1.000000
0.446821 0.000000 0.990240
0.811034 0.000000 0.966854
0.976585 0.000000 0.956224
0.000000 0.156250 0.988496
0.113898 0.156250 0.977866
0.478111 0.156250 0.954480
0.842324 0.156250 0.931094
1.000000 0.156250 0.920464
0.017185 0.500000 0.909824
0.182736 0.500000 0.899194
0.546949 0.500000 0.875808
0.911162 0.500000 0.852422
1.000000 0.500000 0.841792
0.086023 0.843750 0.831152
0.251574 0.843750 0.820522
0.615787 0.843750 0.797136
0.980000 0.843750 0.773750
1.000000 0.843750 0.763120
0.117313 1.000000 0.795392
0.282864 1.000000 0.784762
0.647077 1.000000 0.761376
1.000000 1.000000 0.737990
1.000000 1.000000 0.727360
0.000000 0.000000 1.000000
0.085767 0.000000 1.000000
0.449980 0.000000 1.000000
0.814193 0.000000 1.000000
0.979744 0.000000 1.000000
0.000000 0.156250 1.000000
0.117057 0.156250 1.000000
0.481270 0.156250 1.000000
0.845483 0.156250 1.000000
1.000000 0.156250 1.000000
0.020344 0.500000 1.000000
0.185895 0.500000 1.000000
0.550108 0.500000 1.000000
0.914321 0.500000 1.000000
1.000000 0.500000 0.994432
0.089182 0.843750 0.983792
0.254733 0.843750 0.973162
0.618946 0.843750 0.949776
0.983159 0.843750 0.926390
1.000000 0.843750 0.915760
0.120472 1.000000 0.948032
0.286023 1.000000 0.937402
0.650236 1.000000 0.914016
1.000000 1.000000 0.890630
1.000000 1.000000 0.880000
