tools/test-grade.cube
TITLE "XCam Test Grade"
LUT_3D_SIZE 17
DOMAIN_MIN 0.0 0.0 0.0
DOMAIN_MAX 1.0 1.0 1.0
0.000000 0.000000 0.200000
0.000000 0.000000 0.199236
0.000000 0.000000 0.197077
0.000000 0.000000 0.193722
0.065551 0.000000 0.189370
0.145740 0.000000 0.184221
0.235241 0.000000 0.178474
0.330951 0.000000 0.172329
0.429764 0.000000 0.165984
0.528577 0.000000 0.159639
0.624287 0.000000 0.153494
0.713788 0.000000 0.147747
0.793977 0.000000 0.142598
0.861749 0.000000 0.138246
0.914001 0.000000 0.134891
0.947629 0.000000 0.132732
0.959528 0.000000 0.131968
0.000000 0.011230 0.197430
0.000000 0.011230 0.196666
0.000000 0.011230 0.194507
0.000028 0.011230 0.191151
0.067800 0.011230 0.186800
0.147989 0.011230 0.181651
0.237490 0.011230 0.175904
0.333200 0.011230 0.169759
0.432013 0.011230 0.163414
0.530826 0.011230 0.157069
0.626536 0.011230 0.150923
0.716037 0.011230 0.145177
0.796226 0.011230 0.140028
0.863998 0.011230 0.135676
0.916250 0.011230 0.132321
0.949878 0.011230 0.130162
0.961777 0.011230 0.129398
0.000000 0.042969 0.190166
0.000000 0.042969 0.189402
0.000000 0.042969 0.187243
0.006383 0.042969 0.183888
0.074156 0.042969 0.179536
0.154345 0.042969 0.174387
0.243846 0.042969 0.168640
0.339555 0.042969 0.162495
0.438369 0.042969 0.156150
0.537182 0.042969 0.149805
0.632891 0.042969 0.143660
0.722393 0.042969 0.137913
0.802582 0.042969 0.132764
0.870354 0.042969 0.128412
0.922606 0.042969 0.125057
0.956234 0.042969 0.122898
0.968133 0.042969 0.122134
0.000000 0.092285 0.178879
0.000000 0.092285 0.178115
0.000000 0.092285 0.175956
0.016259 0.092285 0.172601
0.084032 0.092285 0.168249
0.164221 0.092285 0.163100
0.253722 0.092285 0.157354
0.349431 0.092285 0.151208
0.448245 0.092285 0.144863
0.547058 0.092285 0.138518
0.642767 0.092285 0.132373
0.732269 0.092285 0.126626
0.812457 0.092285 0.121477
0.880230 0.092285 0.117126
0.932482 0.092285 0.113771
0.966110 0.092285 0.111611
0.978009 0.092285 0.110847
0.000000 0.156250 0.164240
0.000000 0.156250 0.163476
0.000000 0.156250 0.161317
0.029069 0.156250 0.157962
0.096841 0.156250 0.153610
0.177030 0.156250 0.148461
0.266531 0.156250 0.142714
0.362241 0.156250 0.136569
0.461054 0.156250 0.130224
0.559867 0.156250 0.123879
0.655577 0.156250 0.117734
0.745078 0.156250 0.111987
0.825267 0.156250 0.106838
0.893039 0.156250 0.102486
0.945291 0.156250 0.099131
0.978919 0.156250 0.096972
0.990818 0.156250 0.096208
0.000000 0.231934 0.146919
0.000000 0.231934 0.146155
0.000000 0.231934 0.143996
0.044225 0.231934 0.140640
0.111997 0.231934 0.136289
0.192186 0.231934 0.131140
0.281687 0.231934 0.125393
0.377397 0.231934 0.119248
0.476210 0.231934 0.112903
0.575023 0.231934 0.106558
0.670733 0.231934 0.100412
0.760234 0.231934 0.094666
0.840423 0.231934 0.089517
0.908195 0.231934 0.085165
0.960448 0.231934 0.081810
0.994075 0.231934 0.079651
1.000000 0.231934 0.078887
0.000000 0.316406 0.127586
0.000000 0.316406 0.126822
0.008889 0.316406 0.124663
0.061141 0.316406 0.121308
0.128914 0.316406 0.116956
0.209102 0.316406 0.111807
0.298604 0.316406 0.106060
0.394313 0.316406 0.099915
0.493126 0.316406 0.093570
0.591940 0.316406 0.087225
0.687649 0.316406 0.081080
0.777150 0.316406 0.075333
0.857339 0.316406 0.070184
0.925112 0.316406 0.065832
0.977364 0.316406 0.062477
1.000000 0.316406 0.060318
1.000000 0.316406 0.059554
0.000000 0.406738 0.106912
0.000000 0.406738 0.106148
0.026978 0.406738 0.103989
0.079230 0.406738 0.100634
0.147003 0.406738 0.096282
0.227192 0.406738 0.091133
0.316693 0.406738 0.085387
0.412402 0.406738 0.079241
0.511216 0.406738 0.072896
0.610029 0.406738 0.066551
0.705739 0.406738 0.060406
0.795240 0.406738 0.054659
0.875429 0.406738 0.049510
0.943201 0.406738 0.045159
0.995453 0.406738 0.041804
1.000000 0.406738 0.039644
1.000000 0.406738 0.038880
0.000128 0.500000 0.085568
0.012027 0.500000 0.084804
0.045655 0.500000 0.082645
0.097907 0.500000 0.079290
0.165679 0.500000 0.074938
0.245868 0.500000 0.069789
0.335369 0.500000 0.064042
0.431079 0.500000 0.057897
0.529892 0.500000 0.051552
0.628705 0.500000 0.045207
0.724415 0.500000 0.039062
0.813916 0.500000 0.033315
0.894105 0.500000 0.028166
0.961877 0.500000 0.023814
1.000000 0.500000 0.020459
1.000000 0.500000 0.018300
1.000000 0.500000 0.017536
0.018804 0.593262 0.064224
0.030703 0.593262 0.063460
0.064331 0.593262 0.061301
0.116583 0.593262 0.057945
0.184355 0.593262 0.053594
0.264544 0.593262 0.048445
0.354046 0.593262 0.042698
0.449755 0.593262 0.036553
0.548568 0.593262 0.030208
0.647382 0.593262 0.023863
0.743091 0.593262 0.017718
0.832592 0.593262 0.011971
0.912781 0.593262 0.006822
0.980554 0.593262 0.002470
1.000000 0.593262 0.000000
1.000000 0.593262 0.000000
1.000000 0.593262 0.000000
0.036894 0.683594 0.043550
0.048793 0.683594 0.042786
0.082420 0.683594 0.040627
0.134672 0.683594 0.037272
0.202445 0.683594 0.032920
0.282634 0.683594 0.027771
0.372135 0.683594 0.022024
0.467844 0.683594 0.015879
0.566658 0.683594 0.009534
0.665471 0.683594 0.003189
0.761180 0.683594 0.000000
0.850682 0.683594 0.000000
0.930871 0.683594 0.000000
0.998643 0.683594 0.000000
1.000000 0.683594 0.000000
1.000000 0.683594 0.000000
1.000000 0.683594 0.000000
0.053810 0.768066 0.024217
0.065709 0.768066 0.023453
0.099336 0.768066 0.021294
0.151589 0.768066 0.017939
0.219361 0.768066 0.013587
0.299550 0.768066 0.008438
0.389051 0.768066 0.002692
0.484761 0.768066 0.000000
0.583574 0.768066 0.000000
0.682387 0.768066 0.000000
0.778097 0.768066 0.000000
0.867598 0.768066 0.000000
0.947787 0.768066 0.000000
1.000000 0.768066 0.000000
1.000000 0.768066 0.000000
1.000000 0.768066 0.000000
1.000000 0.768066 0.000000
0.068966 0.843750 0.006896
0.080865 0.843750 0.006132
0.114493 0.843750 0.003973
0.166745 0.843750 0.000618
0.234517 0.843750 0.000000
0.314706 0.843750 0.000000
0.404207 0.843750 0.000000
0.499917 0.843750 0.000000
0.598730 0.843750 0.000000
0.697543 0.843750 0.000000
0.793253 0.843750 0.000000
0.882754 0.843750 0.000000
0.962943 0.843750 0.000000
1.000000 0.843750 0.000000
1.000000 0.843750 0.000000
1.000000 0.843750 0.000000
1.000000 0.843750 0.000000
0.081775 0.907715 0.000000
0.093674 0.907715 0.000000
0.127302 0.907715 0.000000
0.179554 0.907715 0.000000
0.247327 0.907715 0.000000
0.327515 0.907715 0.000000
0.417017 0.907715 0.000000
0.512726 0.907715 0.000000
0.611539 0.907715 0.000000
0.710353 0.907715 0.000000
0.806062 0.907715 0.000000
0.895563 0.907715 0.000000
0.975752 0.907715 0.000000
1.000000 0.907715 0.000000
1.000000 0.907715 0.000000
1.000000 0.907715 0.000000
1.000000 0.907715 0.000000
0.091651 0.957031 0.000000
0.103550 0.957031 0.000000
0.137178 0.957031 0.000000
0.189430 0.957031 0.000000
0.257203 0.957031 0.000000
0.337391 0.957031 0.000000
0.426893 0.957031 0.000000
0.522602 0.957031 0.000000
0.621415 0.957031 0.000000
0.720229 0.957031 0.000000
0.815938 0.957031 0.000000
0.905439 0.957031 0.000000
0.985628 0.957031 0.000000
1.000000 0.957031 0.000000
1.000000 0.957031 0.000000
1.000000 0.957031 0.000000
1.000000 0.957031 0.000000
0.098007 0.988770 0.000000
0.109906 0.988770 0.000000
0.143534 0.988770 0.000000
0.195786 0.988770 0.000000
0.263558 0.988770 0.000000
0.343747 0.988770 0.000000
0.433248 0.988770 0.000000
0.528958 0.988770 0.000000
0.627771 0.988770 0.000000
0.726584 0.988770 0.000000
0.822294 0.988770 0.000000
0.911795 0.988770 0.000000
0.991984 0.988770 0.000000
1.000000 0.988770 0.000000
1.000000 0.988770 0.000000
1.000000 0.988770 0.000000
1.000000 0.988770 0.000000
0.100256 1.000000 0.000000
0.112155 1.000000 0.000000
0.145783 1.000000 0.000000
0.198035 1.000000 0.000000
0.265807 1.000000 0.000000
0.345996 1.000000 0.000000
0.435497 1.000000 0.000000
0.531207 1.000000 0.000000
0.630020 1.000000 0.000000
0.728833 1.000000 0.000000
0.824543 1.000000 0.000000
0.914044 1.000000 0.000000
0.994233 1.000000 0.000000
1.000000 1.000000 0.000000
1.000000 1.000000 0.000000
1.000000 1.000000 0.000000
1.000000 1.000000 0.000000
0.000000 0.000000 0.210971
0.000000 0.000000 0.210207
0.000000 0.000000 0.208048
0.000000 0.000000 0.204693
0.065778 0.000000 0.200341
0.145967 0.000000 0.195192
0.235468 0.000000 0.189445
0.331178 0.000000 0.183300
0.429991 0.000000 0.176955
0.528804 0.000000 0.170610
0.624514 0.000000 0.164465
0.714015 0.000000 0.158718
0.794204 0.000000 0.153569
0.861976 0.000000 0.149217
0.914228 0.000000 0.145862
0.947856 0.000000 0.143703
0.959755 0.000000 0.142939
0.000000 0.011230 0.208401
0.000000 0.011230 0.207637
0.000000 0.011230 0.205478
0.000255 0.011230 0.202122
0.068027 0.011230 0.197771
0.148216 0.011230 0.192622
0.237717 0.011230 0.186875
0.333427 0.011230 0.180730
0.432240 0.011230 0.174385
0.531053 0.011230 0.168040
0.626763 0.011230 0.161895
0.716264 0.011230 0.156148
0.796453 0.011230 0.150999
0.864225 0.011230 0.146647
0.916477 0.011230 0.143292
0.950105 0.011230 0.141133
0.962004 0.011230 0.140369
0.000000 0.042969 0.201137
0.000000 0.042969 0.200373
0.000000 0.042969 0.198214
0.006610 0.042969 0.194859
0.074383 0.042969 0.190507
0.154572 0.042969 0.185358
0.244073 0.042969 0.179611
0.339782 0.042969 0.173466
0.438596 0.042969 0.167121
0.537409 0.042969 0.160776
0.633119 0.042969 0.154631
0.722620 0.042969 0.148884
0.802809 0.042969 0.143735
0.870581 0.042969 0.139383
0.922833 0.042969 0.136028
0.956461 0.042969 0.133869
0.968360 0.042969 0.133105
0.000000 0.092285 0.189850
0.000000 0.092285 0.189086
0.000000 0.092285 0.186927
0.016486 0.092285 0.183572
0.084259 0.092285 0.179220
0.164448 0.092285 0.174071
0.253949 0.092285 0.168325
0.349658 0.092285 0.162179
0.448472 0.092285 0.155834
0.547285 0.092285 0.149489
0.642994 0.092285 0.143344
0.732496 0.092285 0.137597
0.812684 0.092285 0.132448
0.880457 0.092285 0.128097
0.932709 0.092285 0.124742
0.966337 0.092285 0.122582
0.978236 0.092285 0.121818
0.000000 0.156250 0.175211
0.000000 0.156250 0.174447
0.000000 0.156250 0.172288
0.029296 0.156250 0.168933
0.097068 0.156250 0.164581
0.177257 0.156250 0.159432
0.266758 0.156250 0.153685
0.362468 0.156250 0.147540
0.461281 0.156250 0.141195
0.560094 0.156250 0.134850
0.655804 0.156250 0.128705
0.745305 0.156250 0.122958
0.825494 0.156250 0.117809
0.893266 0.156250 0.113457
0.945518 0.156250 0.110102
0.979146 0.156250 0.107943
0.991045 0.156250 0.107179
0.000000 0.231934 0.157890
0.000000 0.231934 0.157126
0.000000 0.231934 0.154967
0.044452 0.231934 0.151611
0.112224 0.231934 0.147260
0.192413 0.231934 0.142111
0.281914 0.231934 0.136364
0.377624 0.231934 0.130219
0.476437 0.231934 0.123874
0.575251 0.231934 0.117529
0.670960 0.231934 0.111383
0.760461 0.231934 0.105637
0.840650 0.231934 0.100488
0.908422 0.231934 0.096136
0.960675 0.231934 0.092781
0.994302 0.231934 0.090622
1.000000 0.231934 0.089858
0.000000 0.316406 0.138557
0.000000 0.316406 0.137793
0.009116 0.316406 0.135634
0.061368 0.316406 0.132279
0.129141 0.316406 0.127927
0.209329 0.316406 0.122778
0.298831 0.316406 0.117031
0.394540 0.316406 0.110886
0.493353 0.316406 0.104541
0.592167 0.316406 0.098196
0.687876 0.316406 0.092051
0.777377 0.316406 0.086304
0.857566 0.316406 0.081155
0.925339 0.316406 0.076803
0.977591 0.316406 0.073448
1.000000 0.316406 0.071289
1.000000 0.316406 0.070525
0.000000 0.406738 0.117883
0.000000 0.406738 0.117119
0.027205 0.406738 0.114960
0.079458 0.406738 0.111605
0.147230 0.406738 0.107253
0.227419 0.406738 0.102104
0.316920 0.406738 0.096358
0.412629 0.406738 0.090212
0.511443 0.406738 0.083867
0.610256 0.406738 0.077522
0.705966 0.406738 0.071377
0.795467 0.406738 0.065630
0.875656 0.406738 0.060481
0.943428 0.406738 0.056130
0.995680 0.406738 0.052775
1.000000 0.406738 0.050615
1.000000 0.406738 0.049851
0.000355 0.500000 0.096539
0.012254 0.500000 0.095775
0.045882 0.500000 0.093616
0.098134 0.500000 0.090261
0.165906 0.500000 0.085909
0.246095 0.500000 0.080760
0.335596 0.500000 0.075013
0.431306 0.500000 0.068868
0.530119 0.500000 0.062523
0.628932 0.500000 0.056178
0.724642 0.500000 0.050033
0.814143 0.500000 0.044286
0.894332 0.500000 0.039137
0.962104 0.500000 0.034785
1.000000 0.500000 0.031430
1.000000 0.500000 0.029271
1.000000 0.500000 0.028507
0.019031 0.593262 0.075195
0.030930 0.593262 0.074431
0.064558 0.593262 0.072272
0.116810 0.593262 0.068916
0.184583 0.593262 0.064565
0.264771 0.593262 0.059416
0.354273 0.593262 0.053669
0.449982 0.593262 0.047524
0.548795 0.593262 0.041179
0.647609 0.593262 0.034834
0.743318 0.593262 0.028689
0.832819 0.593262 0.022942
0.913008 0.593262 0.017793
0.980781 0.593262 0.013441
1.000000 0.593262 0.010086
1.000000 0.593262 0.007927
1.000000 0.593262 0.007163
0.037121 0.683594 0.054521
0.049020 0.683594 0.053757
0.082647 0.683594 0.051598
0.134899 0.683594 0.048243
0.202672 0.683594 0.043891
0.282861 0.683594 0.038742
0.372362 0.683594 0.032995
0.468071 0.683594 0.026850
0.566885 0.683594 0.020505
0.665698 0.683594 0.014160
0.761408 0.683594 0.008015
0.850909 0.683594 0.002268
0.931098 0.683594 0.000000
0.998870 0.683594 0.000000
1.000000 0.683594 0.000000
1.000000 0.683594 0.000000
1.000000 0.683594 0.000000
0.054037 0.768066 0.035188
0.065936 0.768066 0.034424
0.099564 0.768066 0.032265
0.151816 0.768066 0.028910
0.219588 0.768066 0.024558
0.299777 0.768066 0.019409
0.389278 0.768066 0.013663
0.484988 0.768066 0.007517
0.583801 0.768066 0.001172
0.682614 0.768066 0.000000
0.778324 0.768066 0.000000
0.867825 0.768066 0.000000
0.948014 0.768066 0.000000
1.000000 0.768066 0.000000
1.000000 0.768066 0.000000
1.000000 0.768066 0.000000
1.000000 0.768066 0.000000
0.069193 0.843750 0.017867
0.081092 0.843750 0.017103
0.114720 0.843750 0.014944
0.166972 0.843750 0.011589
0.234744 0.843750 0.007237
0.314933 0.843750 0.002088
0.404434 0.843750 0.000000
0.500144 0.843750 0.000000
0.598957 0.843750 0.000000
0.697770 0.843750 0.000000
0.793480 0.843750 0.000000
0.882981 0.843750 0.000000
0.963170 0.843750 0.000000
1.000000 0.843750 0.000000
1.000000 0.843750 0.000000
1.000000 0.843750 0.000000
1.000000 0.843750 0.000000
0.082002 0.907715 0.003228
0.093901 0.907715 0.002464
0.127529 0.907715 0.000305
0.179781 0.907715 0.000000
0.247554 0.907715 0.000000
0.327743 0.907715 0.000000
0.417244 0.907715 0.000000
0.512953 0.907715 0.000000
0.611766 0.907715 0.000000
0.710580 0.907715 0.000000
0.806289 0.907715 0.000000
0.895790 0.907715 0.000000
0.975979 0.907715 0.000000
1.000000 0.907715 0.000000
1.000000 0.907715 0.000000
1.000000 0.907715 0.000000
1.000000 0.907715 0.000000
0.091878 0.957031 0.000000
0.103777 0.957031 0.000000
0.137405 0.957031 0.000000
0.189657 0.957031 0.000000
0.257430 0.957031 0.000000
0.337618 0.957031 0.000000
0.427120 0.957031 0.000000
0.522829 0.957031 0.000000
0.621642 0.957031 0.000000
0.720456 0.957031 0.000000
0.816165 0.957031 0.000000
0.905666 0.957031 0.000000
0.985855 0.957031 0.000000
1.000000 0.957031 0.000000
1.000000 0.957031 0.000000
1.000000 0.957031 0.000000
1.000000 0.957031 0.000000
0.098234 0.988770 0.000000
0.110133 0.988770 0.000000
0.143761 0.988770 0.000000
0.196013 0.988770 0.000000
0.263785 0.988770 0.000000
0.343974 0.988770 0.000000
0.433475 0.988770 0.000000
0.529185 0.988770 0.000000
0.627998 0.988770 0.000000
0.726811 0.988770 0.000000
0.822521 0.988770 0.000000
0.912022 0.988770 0.000000
0.992211 0.988770 0.000000
1.000000 0.988770 0.000000
1.000000 0.988770 0.000000
1.000000 0.988770 0.000000
1.000000 0.988770 0.000000
0.100483 1.000000 0.000000
0.112382 1.000000 0.000000
0.146010 1.000000 0.000000
0.198262 1.000000 0.000000
0.266034 1.000000 0.000000
0.346223 1.000000 0.000000
0.435724 1.000000 0.000000
0.531434 1.000000 0.000000
0.630247 1.000000 0.000000
0.729060 1.000000 0.000000
0.824770 1.000000 0.000000
0.914271 1.000000 0.000000
0.994460 1.000000 0.000000
1.000000 1.000000 0.000000
1.000000 1.000000 0.000000
1.000000 1.000000 0.000000
1.000000 1.000000 0.000000
0.000000 0.000000 0.241976
0.000000 0.000000 0.241212
0.000000 0.000000 0.239053
0.000000 0.000000 0.235698
0.066420 0.000000 0.231346
0.146609 0.000000 0.226197
0.236110 0.000000 0.220450
0.331819 0.000000 0.214305
0.430633 0.000000 0.207960
0.529446 0.000000 0.201615
0.625155 0.000000 0.195470
0.714657 0.000000 0.189723
0.794845 0.000000 0.184574
0.862618 0.000000 0.180222
0.914870 0.000000 0.176867
0.948498 0.000000 0.174708
0.960397 0.000000 0.173944
0.000000 0.011230 0.239406
0.000000 0.011230 0.238642
0.000000 0.011230 0.236483
0.000896 0.011230 0.233127
0.068669 0.011230 0.228776
0.148858 0.011230 0.223627
0.238359 0.011230 0.217880
0.334068 0.011230 0.211735
0.432882 0.011230 0.205390
0.531695 0.011230 0.199045
0.627404 0.011230 0.192899
0.716905 0.011230 0.187153
0.797094 0.011230 0.182004
0.864867 0.011230 0.177652
0.917119 0.011230 0.174297
0.950747 0.011230 0.172138
0.962646 0.011230 0.171374
0.000000 0.042969 0.232142
0.000000 0.042969 0.231378
0.000000 0.042969 0.229219
0.007252 0.042969 0.225864
0.075025 0.042969 0.221512
0.155214 0.042969 0.216363
0.244715 0.042969 0.210616
0.340424 0.042969 0.204471
0.439237 0.042969 0.198126
0.538051 0.042969 0.191781
0.633760 0.042969 0.185636
0.723261 0.042969 0.179889
0.803450 0.042969 0.174740
0.871223 0.042969 0.170388
0.923475 0.042969 0.167033
0.957102 0.042969 0.164874
0.969001 0.042969 0.164110
0.000000 0.092285 0.220855
0.000000 0.092285 0.220091
0.000000 0.092285 0.217932
0.017128 0.092285 0.214577
0.084901 0.092285 0.210225
0.165089 0.092285 0.205076
0.254591 0.092285 0.199329
0.350300 0.092285 0.193184
0.449113 0.092285 0.186839
0.547927 0.092285 0.180494
0.643636 0.092285 0.174349
0.733137 0.092285 0.168602
0.813326 0.092285 0.163453
0.881099 0.092285 0.159102
0.933351 0.092285 0.155746
0.966978 0.092285 0.153587
0.978877 0.092285 0.152823
0.000000 0.156250 0.206216
0.000000 0.156250 0.205452
0.000000 0.156250 0.203293
0.029937 0.156250 0.199938
0.097710 0.156250 0.195586
0.177899 0.156250 0.190437
0.267400 0.156250 0.184690
0.363109 0.156250 0.178545
0.461923 0.156250 0.172200
0.560736 0.156250 0.165855
0.656445 0.156250 0.159710
0.745947 0.156250 0.153963
0.826135 0.156250 0.148814
0.893908 0.156250 0.144462
0.946160 0.156250 0.141107
0.979788 0.156250 0.138948
0.991687 0.156250 0.138184
0.000000 0.231934 0.188895
0.000000 0.231934 0.188131
0.000000 0.231934 0.185972
0.045093 0.231934 0.182616
0.112866 0.231934 0.178265
0.193055 0.231934 0.173116
0.282556 0.231934 0.167369
0.378265 0.231934 0.161224
0.477079 0.231934 0.154879
0.575892 0.231934 0.148534
0.671601 0.231934 0.142389
0.761103 0.231934 0.136642
0.841292 0.231934 0.131493
0.909064 0.231934 0.127141
0.961316 0.231934 0.123786
0.994944 0.231934 0.121627
1.000000 0.231934 0.120863
0.000000 0.316406 0.169562
0.000000 0.316406 0.168798
0.009757 0.316406 0.166639
0.062010 0.316406 0.163284
0.129782 0.316406 0.158932
0.209971 0.316406 0.153783
0.299472 0.316406 0.148036
0.395182 0.316406 0.141891
0.493995 0.316406 0.135546
0.592808 0.316406 0.129201
0.688518 0.316406 0.123056
0.778019 0.316406 0.117309
0.858208 0.316406 0.112160
0.925980 0.316406 0.107808
0.978232 0.316406 0.104453
1.000000 0.316406 0.102294
1.000000 0.316406 0.101530
0.000000 0.406738 0.148888
0.000000 0.406738 0.148124
0.027847 0.406738 0.145965
0.080099 0.406738 0.142610
0.147872 0.406738 0.138258
0.228061 0.406738 0.133109
0.317562 0.406738 0.127362
0.413271 0.406738 0.121217
0.512084 0.406738 0.114872
0.610898 0.406738 0.108527
0.706607 0.406738 0.102382
0.796108 0.406738 0.096635
0.876297 0.406738 0.091486
0.944070 0.406738 0.087135
0.996322 0.406738 0.083780
1.000000 0.406738 0.081620
1.000000 0.406738 0.080856
0.000997 0.500000 0.127544
0.012896 0.500000 0.126780
0.046523 0.500000 0.124621
0.098775 0.500000 0.121266
0.166548 0.500000 0.116914
0.246737 0.500000 0.111765
0.336238 0.500000 0.106018
0.431947 0.500000 0.099873
0.530761 0.500000 0.093528
0.629574 0.500000 0.087183
0.725283 0.500000 0.081038
0.814785 0.500000 0.075291
0.894973 0.500000 0.070142
0.962746 0.500000 0.065790
1.000000 0.500000 0.062435
1.000000 0.500000 0.060276
1.000000 0.500000 0.059512
0.019673 0.593262 0.106200
0.031572 0.593262 0.105436
0.065199 0.593262 0.103276
0.117452 0.593262 0.099921
0.185224 0.593262 0.095570
0.265413 0.593262 0.090421
0.354914 0.593262 0.084674
0.450623 0.593262 0.078529
0.549437 0.593262 0.072184
0.648250 0.593262 0.065839
0.743960 0.593262 0.059694
0.833461 0.593262 0.053947
0.913650 0.593262 0.048798
0.981422 0.593262 0.044446
1.000000 0.593262 0.041091
1.000000 0.593262 0.038932
1.000000 0.593262 0.038168
0.037762 0.683594 0.085526
0.049661 0.683594 0.084762
0.083289 0.683594 0.082603
0.135541 0.683594 0.079248
0.203314 0.683594 0.074896
0.283503 0.683594 0.069747
0.373004 0.683594 0.064000
0.468713 0.683594 0.057855
0.567526 0.683594 0.051510
0.666340 0.683594 0.045165
0.762049 0.683594 0.039020
0.851550 0.683594 0.033273
0.931739 0.683594 0.028124
0.999512 0.683594 0.023772
1.000000 0.683594 0.020417
1.000000 0.683594 0.018258
1.000000 0.683594 0.017494
0.054679 0.768066 0.066193
0.066578 0.768066 0.065429
0.100205 0.768066 0.063270
0.152457 0.768066 0.059915
0.220230 0.768066 0.055563
0.300419 0.768066 0.050414
0.389920 0.768066 0.044668
0.485629 0.768066 0.038522
0.584443 0.768066 0.032177
0.683256 0.768066 0.025832
0.778965 0.768066 0.019687
0.868466 0.768066 0.013940
0.948655 0.768066 0.008791
1.000000 0.768066 0.004440
1.000000 0.768066 0.001085
1.000000 0.768066 0.000000
1.000000 0.768066 0.000000
0.069835 0.843750 0.048872
0.081734 0.843750 0.048108
0.115361 0.843750 0.045949
0.167613 0.843750 0.042594
0.235386 0.843750 0.038242
0.315575 0.843750 0.033093
0.405076 0.843750 0.027346
0.500785 0.843750 0.021201
0.599599 0.843750 0.014856
0.698412 0.843750 0.008511
0.794121 0.843750 0.002366
0.883623 0.843750 0.000000
0.963811 0.843750 0.000000
1.000000 0.843750 0.000000
1.000000 0.843750 0.000000
1.000000 0.843750 0.000000
1.000000 0.843750 0.000000
0.082644 0.907715 0.034233
0.094543 0.907715 0.033469
0.128171 0.907715 0.031310
0.180423 0.907715 0.027954
0.248195 0.907715 0.023603
0.328384 0.907715 0.018454
0.417885 0.907715 0.012707
0.513595 0.907715 0.006562
0.612408 0.907715 0.000217
0.711221 0.907715 0.000000
0.806931 0.907715 0.000000
0.896432 0.907715 0.000000
0.976621 0.907715 0.000000
1.000000 0.907715 0.000000
1.000000 0.907715 0.000000
1.000000 0.907715 0.000000
1.000000 0.907715 0.000000
0.092520 0.957031 0.022946
0.104419 0.957031 0.022182
0.138046 0.957031 0.020023
0.190299 0.957031 0.016668
0.258071 0.957031 0.012316
0.338260 0.957031 0.007167
0.427761 0.957031 0.001420
0.523471 0.957031 0.000000
0.622284 0.957031 0.000000
0.721097 0.957031 0.000000
0.816807 0.957031 0.000000
0.906308 0.957031 0.000000
0.986497 0.957031 0.000000
1.000000 0.957031 0.000000
1.000000 0.957031 0.000000
1.000000 0.957031 0.000000
1.000000 0.957031 0.000000
0.098876 0.988770 0.015682
0.110775 0.988770 0.014918
0.144402 0.988770 0.012759
0.196654 0.988770 0.009404
0.264427 0.988770 0.005052
0.344616 0.988770 0.000000
0.434117 0.988770 0.000000
0.529826 0.988770 0.000000
0.628640 0.988770 0.000000
0.727453 0.988770 0.000000
0.823162 0.988770 0.000000
0.912664 0.988770 0.000000
0.992852 0.988770 0.000000
1.000000 0.988770 0.000000
1.000000 0.988770 0.000000
1.000000 0.988770 0.000000
1.000000 0.988770 0.000000
0.101125 1.000000 0.013112
0.113024 1.000000 0.012348
0.146651 1.000000 0.010189
0.198903 1.000000 0.006834
0.266676 1.000000 0.002482
0.346865 1.000000 0.000000
0.436366 1.000000 0.000000
0.532075 1.000000 0.000000
0.630889 1.000000 0.000000
0.729702 1.000000 0.000000
0.825411 1.000000 0.000000
0.914913 1.000000 0.000000
0.995101 1.000000 0.000000
1.000000 1.000000 0.000000
1.000000 1.000000 0.000000
1.000000 1.000000 0.000000
1.000000 1.000000 0.000000
0.000000 0.000000 0.290153
0.000000 0.000000 0.289389
0.000000 0.000000 0.287230
0.000000 0.000000 0.283875
0.067417 0.000000 0.279523
0.147606 0.000000 0.274374
0.237107 0.000000 0.268627
0.332816 0.000000 0.262482
0.431630 0.000000 0.256137
0.530443 0.000000 0.249792
0.626152 0.000000 0.243647
0.715654 0.000000 0.237900
0.795842 0.000000 0.232751
0.863615 0.000000 0.228399
0.915867 0.000000 0.225044
0.949495 0.000000 0.222885
0.961394 0.000000 0.222121
0.000000 0.011230 0.287583
